X: 51
T: Mazurka in F Major, Op. 68, No. 3
C: Frederic Chopin
%%abc-version 2.0
%%abcx-abcm2ps-target-version 5.9.1 (29 Sep 2008)
%%abc-creator hum2abc beta
%%abcx-conversion-date 2021/01/17 12:55:01
%%abc-edited-by Craig Stuart Sapp
%%abcx-initial-encoding-date 2005/03/04/
%%gracespace 0 6 6
%%humdrum-veritas 1909506708
%%humdrum-veritas-data 2834084809
%%linebreak <none>
%%barnumbers 0
L: 1/8
M: 3/4
N: Derived from mazurka68-3.krn
Q: "Allegro ma non troppo" 1/4=132
%%staves {1 2}
V: 1 clef=treble
V: 2 clef=bass
K: F
[V:1] [Ac]>[Ac][A2c2][A2f2] | 
[V:2] [F,C]>[F,C][F,2C2][F,2C2] | 
[V:1] [Ge]>[Fd][E4c4] | 
[V:2] [G,C]>=B,C4 & C,6 | 
[V:1] [FA]>[FA][F2A2][F2d2] | 
[V:2] [D,A,]>[D,A,][D,2A,2][D,2A,2] | 
[V:1] [Ec]>[DB][C4A4] | 
[V:2] E,>^G,A,4 & A,,6 | 
[V:1] [DF]>[DF][D2F2][D2B2] | 
[V:2] [B,,F,]>[B,,F,][B,,2F,2][B,,2F,2] | 
[V:1] [CA]>[B,G][A,2F2][D2B2] | 
[V:2] [F,,F,]>[F,,F,][F,,2F,2][B,,2F,2] | 
[V:1] [CA]>[B,G][A,2F2][=B,2G2] | 
[V:2] F,>F,F,2D,G, & F,,4G,,2 | 
[V:1] [CE]>DC4 | 
[V:2] G,>F,E,4 & C,6 | 
[V:1] [Ac]>[Ac][A2c2][A2f2] | 
[V:2] [F,C]>[F,C][F,2C2][F,2C2] | 
[V:1] [Ge]>[Fd][E4c4] | 
[V:2] [G,C]>=B,C4 & C,6 | 
[V:1] [FA]>[FA][F2A2][F2d2] | 
[V:2] [D,A,]>[D,A,][D,2A,2][D,2A,2] | 
[V:1] [Ec]>[DB][C4A4] | 
[V:2] E,>^G,A,4 & A,,4x2 | 
[V:1] [DF]>[DF][D2F2][D2B2] | 
[V:2] [B,,F,]>[B,,F,][B,,2F,2][B,,2F,2] | 
[V:1] [CA]>[B,G][A,2F2][D2B2] | 
[V:2] [F,,F,]>[F,,F,][F,,2F,2][B,,2F,2] | 
[V:1] [CA]>[B,G][A,2F2][G,2D2G2] | 
[V:2] F,>F,F,2!accent!G,2 & F,,4B,,2 | 
[V:1] [G,D][CE][A,4F4] | 
[V:2] C,2[F,,4F,4] | 
[V:1] [Aa]>[Aa][A2a2][d2f2] | 
[V:2] A,>A,A,2[D2F2] & A,,2A,4 | 
[V:1] {/[df]} [^ce]>[=Bd][c2e2][A2c2] | 
[V:2] {/[DF]} [^CE]>[=B,D][C2E2][E,2C2] | 
[V:1] [Aa]>[Aa][A2a2][d2f2] | 
[V:2] A,>A,A,2[D2F2] & A,,2A,4 | 
[V:1] [^ce]>[=Bd][E4B4] | 
[V:2] [^CE]>[=B,D][E,4B,4] | 
[V:1] [Aa]>[Aa][A2a2][d2f2] | 
[V:2] A,>A,A,2[D2F2] & A,,2A,4 | 
[V:1] {/[df]} [^ce]>[=Bd][c2e2][A2c2] | 
[V:2] {/[DF]} [^CE]>[=B,D][C2E2][E,2C2] | 
[V:1] [Aa]>[Aa][A2a2][d2f2] | 
[V:2] A,>A,A,2[D2F2] & A,,2A,4 | 
[V:1] [^ce]>[Ac]!fermata![^C4A4] | 
[V:2] [^CE]>[A,C]!fermata![A,,4A,4] | 
[V:1] =c>cx2x2 & [E2_B2][A2c2][A2f2] | 
[V:2] [=C,2G,2=C2][F,2C2][F,2C2] | 
[V:1] [Ge]>[Fd][E4c4] | 
[V:2] [G,C]>=B,C4 & C,6 | 
[V:1] [FA]>[FA][F2A2][F2d2] | 
[V:2] [D,A,]>[D,A,][D,2A,2][D,2A,2] | 
[V:1] [Ec]>[DB][C4A4] | 
[V:2] E,>^G,A,4 & A,,6 | 
[V:1] [DF]>[DF][D2F2][D2B2] | 
[V:2] [B,,F,]>[B,,F,][B,,2F,2][B,,2F,2] | 
[V:1] [CA]>[B,G][A,2F2][D2B2] | 
[V:2] [F,,F,]>[F,,F,][F,,2F,2][B,,2F,2] | 
[V:1] [CA]>[B,G][A,2F2][G,2D2G2] | 
[V:2] F,>F,F,2!accent!G,2 & F,,4B,,2 | 
[V:1] [G,D][CE][A,4F4] ||  
[V:2] C,2[F,,4F,4] ||  
[V:1]  [K:Bb] z6 | 
[V:2]  [K:Bb] [B,2F2][B,2F2][B,2F2] | 
[V:1] z6 | 
[V:2] [B,2F2][B,2F2][B,2F2] | 
[V:1] z6 | 
[V:2] [B,2F2]!accent![B,2F2][B,2F2] | 
[V:1] z6 | 
[V:2] !accent![B,2F2][B,2F2]!accent![B,2F2] | 
[V:1] {/f}f'2>=e'2 f'd' | 
[V:2] [B,2F2][B,2F2][B,2F2] | 
[V:1] bd'c'=e'!accent!f'2 | 
[V:2] [B,2F2][B,2F2]!accent![B,2F2] | 
[V:1] bd'c'=e'f'd' | 
[V:2] [B,2F2][B,2F2][B,2F2] | 
[V:1] bd'c'a!accent!f2 | 
[V:2] [B,2F2][B,2F2][B,2F2] | 
[V:1] {/f}f'2>=e'2f'd' | 
[V:2] [B,2F2][B,2F2][B,2F2] | 
[V:1] bd'c'=e'f'2 | 
[V:2] [B,2F2][B,2F2]!accent![B,2F2] | 
[V:1] bd'c'=e'f'd' | 
[V:2] [B,2F2][B,2F2][B,2F2] | 
[V:1] bd'c'bg2 ||  
[V:2] [B,2F2][K:clef=treble][C2=E2B2][C2E2B2] ||  
[V:1]  [K:F] f>[Ac][A2c2][A2f2] | 
[V:2]  [K:F] [FA]>[K:clef=bass][F,CF][F,2C2F2][F,2C2] | 
[V:1] [Ge]>[Fd][E4c4] | 
[V:2] [G,C]>=B,C4 & C,6 | 
[V:1] [FA]>[FA][F2A2][F2d2] | 
[V:2] [D,A,]>[D,A,][D,2A,2][D,2A,2] | 
[V:1] [Ec]>[DB][C4A4] | 
[V:2] E,>^G,A,4 & A,,6 | 
[V:1] [DF]>[DF][D2F2][D2B2] | 
[V:2] [B,,F,]>[B,,F,][B,,2F,2][B,,2F,2] | 
[V:1] [CA]>[B,G][A,2F2][D2B2] | 
[V:2] [F,,F,]>[F,,F,][F,,2F,2][B,,2F,2] | 
[V:1] [CA]>[B,G][A,2F2][=B,2G2] | 
[V:2] F,>F,F,2D,G, & F,,4G,,2 | 
[V:1] [CE]>DC4 | 
[V:2] G,>F,E,4 & C,6 | 
[V:1] [Ac]>[Ac][A2c2][A2f2] | 
[V:2] [F,C]>[F,C][F,2C2][F,2C2] | 
[V:1] [Ge]>[Fd][E4c4] | 
[V:2] [G,C]>=B,C4 & C,6 | 
[V:1] [FA]>[FA][F2A2][F2d2] | 
[V:2] [D,A,]>[D,A,][D,2A,2][D,2A,2] | 
[V:1] [Ec]>[DB][C4A4] | 
[V:2] E,>^G,A,4 & A,,6 | 
[V:1] [DF]>[DF][D2F2][D2B2] | 
[V:2] [B,,F,]>[B,,F,][B,,2F,2][B,,2F,2] | 
[V:1] [CA]>[B,G][A,2F2][D2B2] | 
[V:2] [F,,F,]>[F,,F,][F,,2F,2][B,,2F,2] | 
[V:1] [CA]>[B,G][A,2F2][G,2D2G2] | 
[V:2] F,>F,F,2!accent!G,2 & F,,4B,,2 | 
[V:1] [G,D][CE][A,4F4] |]  
[V:2] C,2[F,,4F,4] |]  


